svgs/sharp-regular/border-top.svg

<svg xmlns="http://www.w3.org/2000/svg" viewBox="0 0 448 512"><!--! Font Awesome Pro 6.6.0 by @fontawesome - https://fontawesome.com License - https://fontawesome.com/license (Commercial License) Copyright 2024 Fonticons, Inc. --><path d="M0 32l448 0 0 48L0 80 0 32zm0 96l64 0 0 64L0 192l0-64zm448 0l0 64-64 0 0-64 64 0zm-256 0l64 0 0 64-64 0 0-64zM64 320l0 64L0 384l0-64 64 0zm320 0l64 0 0 64-64 0 0-64zm-128 0l0 64-64 0 0-64 64 0zM0 224l64 0 0 64L0 288l0-64zm448 0l0 64-64 0 0-64 64 0zm-256 0l64 0 0 64-64 0 0-64zM64 416l0 64L0 480l0-64 64 0zm320 0l64 0 0 64-64 0 0-64zm-128 0l0 64-64 0 0-64 64 0zM96 224l64 0 0 64-64 0 0-64zm64 192l0 64-64 0 0-64 64 0zm128 0l64 0 0 64-64 0 0-64zm64-192l0 64-64 0 0-64 64 0z"/></svg>

<svg xmlns="http://www.w3.org/2000/svg" viewBox="0 0 448 512"><!--! Font Awesome Pro 6.4.0 by @fontawesome - https://fontawesome.com License - https://fontawesome.com/license (Commercial License) Copyright 2023 Fonticons, Inc. --><path d="M0 32H448V80H0V32zm0 96H64v64H0V128zm448 0v64H384V128h64zm-256 0h64v64H192V128zM64 320v64H0V320H64zm320 0h64v64H384V320zm-128 0v64H192V320h64zM0 224H64v64H0V224zm448 0v64H384V224h64zm-256 0h64v64H192V224zM64 416v64H0V416H64zm320 0h64v64H384V416zm-128 0v64H192V416h64zM96 224h64v64H96V224zm64 192v64H96V416h64zm128 0h64v64H288V416zm64-192v64H288V224h64z"/></svg>
